icons/fill-new-container-receiving.svg

<svg xmlns="http://www.w3.org/2000/svg" width="32px" height="32px" viewBox="0 0 32 32" version="1.1">
    <title>fill-new-container-receiving</title>
    <g id="fill-new-container-receiving" stroke-width="1" fill-rule="evenodd">
        <path d="M23.5,4 C23.8787721,4 24.2250352,4.21400238 24.3944272,4.5527864 L29.8944272,15.5527864 C29.9638549,15.6916418 30,15.8447549 30,16 L30,27 C30,27.5522847 29.5522847,28 29,28 L3,28 C2.44771525,28 2,27.5522847 2,27 L2,16 C2,15.8447549 2.03614509,15.6916418 2.10557281,15.5527864 L7.60557281,4.5527864 C7.77496482,4.21400238 8.12122794,4 8.5,4 L23.5,4 Z M22.881,6 L9.118,6 L4.118,16 L11,16 C11.5522847,16 12,16.4477153 12,17 L12,19 C12,19.5522847 12.4477153,20 13,20 L19,20 C19.5522847,20 20,19.5522847 20,19 L20,17 C20,16.4477153 20.4477153,16 21,16 L27.881,16 L22.881,6 Z M22,12 C22.5522847,12 23,12.4477153 23,13 C23,13.5522847 22.5522847,14 22,14 L10,14 C9.44771525,14 9,13.5522847 9,13 C9,12.4477153 9.44771525,12 10,12 L22,12 Z M19,8 C19.5522847,8 20,8.44771525 20,9 C20,9.55228475 19.5522847,10 19,10 L13,10 C12.4477153,10 12,9.55228475 12,9 C12,8.44771525 12.4477153,8 13,8 L19,8 Z" id="&#24418;&#29366;" fill-rule="nonzero" />
    </g>
</svg>

<svg xmlns="http://www.w3.org/2000/svg" viewBox="0 0 32 32"><path fill="currentColor" d="M23.5 4a1 1 0 0 1 .894.553l5.5 11A1 1 0 0 1 30 16v11a1 1 0 0 1-1 1H3a1 1 0 0 1-1-1V16a1 1 0 0 1 .106-.447l5.5-11A1 1 0 0 1 8.5 4zm-.619 2H9.118l-5 10H11a1 1 0 0 1 1 1v2a1 1 0 0 0 1 1h6a1 1 0 0 0 1-1v-2a1 1 0 0 1 1-1h6.881zM22 12a1 1 0 0 1 0 2H10a1 1 0 0 1 0-2zm-3-4a1 1 0 0 1 0 2h-6a1 1 0 0 1 0-2z"/></svg>
